build/img/sprite/forklift.svg

<?xml version="1.0" encoding="UTF-8"?>
<svg xmlns="http://www.w3.org/2000/svg" id="Layer_1" data-name="Layer 1" viewBox="0 0 24 24">
  <path d="m21,18V3.5h-2v9.5h-3.093l-2.105-10.589c-.279-1.397-1.517-2.411-2.942-2.411H3C1.346,0,0,1.346,0,3v17.5c0,1.93,1.57,3.5,3.5,3.5s3.5-1.57,3.5-3.5v-.5h3v.5c0,1.93,1.57,3.5,3.5,3.5s3.5-1.57,3.5-3.5v-2l-.696-3.5h2.696v5h5v-2h-3ZM3,2h7.86c.475,0,.888.338.981.804l2.039,10.196h-4.123l-.228-.812c-.362-1.288-1.55-2.188-2.889-2.188H2V3c0-.552.449-1,1-1Zm2,18.5c0,.827-.673,1.5-1.5,1.5s-1.5-.673-1.5-1.5v-.5h3v.5Zm10,0c0,.827-.673,1.5-1.5,1.5s-1.5-.673-1.5-1.5v-.5h3v.5Zm-.12-2.5H2v-6h4.642c.446,0,.842.3.963.729l.638,2.271h6.038l.6,3Z"/>
</svg>

<svg xmlns="http://www.w3.org/2000/svg" data-name="Layer 1" viewBox="0 0 24 24"><path d="M21 18V3.5h-2V13h-3.093L13.802 2.411A3.008 3.008 0 0 0 10.86 0H3C1.346 0 0 1.346 0 3v17.5C0 22.43 1.57 24 3.5 24S7 22.43 7 20.5V20h3v.5c0 1.93 1.57 3.5 3.5 3.5s3.5-1.57 3.5-3.5v-2l-.696-3.5H19v5h5v-2h-3ZM3 2h7.86c.475 0 .888.338.981.804L13.88 13H9.757l-.228-.812A3.011 3.011 0 0 0 6.64 10H2V3c0-.552.449-1 1-1Zm2 18.5c0 .827-.673 1.5-1.5 1.5S2 21.327 2 20.5V20h3v.5Zm10 0c0 .827-.673 1.5-1.5 1.5s-1.5-.673-1.5-1.5V20h3v.5Zm-.12-2.5H2v-6h4.642c.446 0 .842.3.963.729L8.243 15h6.038l.6 3Z"/></svg>
